X:1
T:Ormond Sound
T:Paddy O Brien's
M:C|
L:1/8
C:Paddy O Brien
S:Stephen Jones  irtrad-l 2001-8-17
R:Reel
Z:SJ
K:ADor
A2ed BedB | AGG2 AGEG | A2ed Bdef |  g2fa gedg |
eAA2 BedB | AGEF G2AG | EAA2 GABd |1 gedB AEFG :|2 gedB ABcd ||
efge agfg | eaa2 edBd | egfa gfge |  dgge dGBd |
c3A  d3B  | efge a2ga | bgg2 agab |1 gedB ABcd :|2 gedB AEFG |]
